theme/img/partners/partners-openu.svg

<svg width="156" height="185" viewBox="0 0 156 185" version="1.1" xmlns="http://www.w3.org/2000/svg" xmlns:xlink="http://www.w3.org/1999/xlink">
<title>Group 51</title>
<desc>Created using Figma</desc>
<g id="Canvas" transform="translate(2638 -6111)">
<g id="Group 51">
<g id="Union">
<use xlink:href="#path0_fill" transform="translate(-2627.08 6121.88)" fill="#0069B5"/>
</g>
<g id="Union (Stroke)">
<use xlink:href="#path1_fill" transform="translate(-2638 6111)" fill="#FFFFFF"/>
</g>
<g id="Union (Stroke)">
<use xlink:href="#path2_fill" transform="translate(-2631.76 6117.22)" fill="#00345F"/>
</g>
</g>
</g>
<defs>
<path id="path0_fill" fill-rule="evenodd" d="M 34.32 0L 0 0L 0 34.2017L 34.32 34.2017L 34.32 0ZM 34.32 49.7479L 0 49.7479L 0 147.689L 17.16 147.689L 17.16 163.235L 117 163.235L 117 147.689L 134.16 147.689L 134.16 0L 99.84 0L 99.84 130.588L 34.32 130.588L 34.32 49.7479Z"/>
<path id="path1_fill" fill-rule="evenodd" d="M 0 0L 56.16 0L 56.16 130.588L 99.84 130.588L 99.84 0L 156 0L 156 169.454L 138.84 169.454L 138.84 185L 17.16 185L 17.16 169.454L 0 169.454L 0 0ZM 110.76 141.471L 45.24 141.471L 45.24 60.6303L 10.92 60.6303L 10.92 158.571L 28.08 158.571L 28.08 174.118L 127.92 174.118L 127.92 158.571L 145.08 158.571L 145.08 10.8824L 110.76 10.8824L 110.76 141.471ZM 45.24 10.8824L 45.24 45.084L 10.92 45.084L 10.92 10.8824L 45.24 10.8824Z"/>
<path id="path2_fill" fill-rule="evenodd" d="M 0 0L 43.68 0L 43.68 43.5294L 0 43.5294L 0 0ZM 0 49.7479L 43.68 49.7479L 43.68 130.588L 99.84 130.588L 99.84 0L 143.52 0L 143.52 157.017L 126.36 157.017L 126.36 172.563L 17.16 172.563L 17.16 157.017L 0 157.017L 0 49.7479ZM 21.84 152.353L 21.84 167.899L 121.68 167.899L 121.68 152.353L 138.84 152.353L 138.84 4.66387L 104.52 4.66387L 104.52 135.252L 39 135.252L 39 54.4118L 4.68 54.4118L 4.68 152.353L 21.84 152.353ZM 39 4.66387L 39 38.8655L 4.68 38.8655L 4.68 4.66387L 39 4.66387Z"/>
</defs>
</svg>

<svg width="156" height="185" xmlns="http://www.w3.org/2000/svg" xmlns:xlink="http://www.w3.org/1999/xlink"><use xlink:href="#path0_fill" transform="translate(10.92 10.88)" fill="#0069B5"/><use xlink:href="#path1_fill" fill="#FFF"/><use xlink:href="#path2_fill" transform="translate(6.24 6.22)" fill="#00345F"/><defs><path id="path0_fill" fill-rule="evenodd" d="M34.32 0H0v34.202h34.32V0zm0 49.748H0v97.941h17.16v15.546H117v-15.546h17.16V0H99.84v130.588H34.32v-80.84z"/><path id="path1_fill" fill-rule="evenodd" d="M0 0h56.16v130.588h43.68V0H156v169.454h-17.16V185H17.16v-15.546H0V0zm110.76 141.471H45.24v-80.84H10.92v97.94h17.16v15.547h99.84v-15.547h17.16V10.882h-34.32v130.589zM45.24 10.882v34.202H10.92V10.882h34.32z"/><path id="path2_fill" fill-rule="evenodd" d="M0 0h43.68v43.53H0V0zm0 49.748h43.68v80.84h56.16V0h43.68v157.017h-17.16v15.546H17.16v-15.546H0V49.747zm21.84 102.605v15.546h99.84v-15.546h17.16V4.663h-34.32v130.589H39v-80.84H4.68v97.941h17.16zM39 4.663v34.203H4.68V4.663H39z"/></defs></svg>
